lib/logo_tmp/nrk-logo-nrk-super.svg

<svg width="63" height="21" viewBox="0 0 63 21" fill="none" xmlns="http://www.w3.org/2000/svg">
<path d="M0 17.3335V3.33473H4.59339V17.3335H0ZM10.8428 5.5627L13.4844 17.3335H8.45737L5.30307 3.33473H8.12254C8.76907 3.32634 9.39641 3.55425 9.88691 3.97558C10.3782 4.37923 10.7158 4.9396 10.8428 5.5627ZM14.1744 17.3335V3.33473H18.7678V17.3335H14.1744ZM22.2372 8.65824C21.7422 8.66306 21.2552 8.53356 20.828 8.28358C20.4064 8.03993 20.0563 7.68974 19.8127 7.26815C19.5624 6.84084 19.4329 6.35368 19.4378 5.85849C19.4321 5.36633 19.5618 4.88206 19.8127 4.45862C20.0589 4.04161 20.4086 3.69523 20.828 3.45306C21.2553 3.20337 21.7423 3.07389 22.2372 3.0784C22.7292 3.0731 23.2133 3.20271 23.6369 3.45306C24.0521 3.69735 24.3981 4.04344 24.6424 4.45862C24.893 4.88218 25.0226 5.36636 25.0172 5.85849C25.0218 6.35364 24.8923 6.84072 24.6424 7.26815C24.4007 7.68789 24.0542 8.03778 23.6369 8.28358C23.2133 8.53443 22.7289 8.66406 22.2366 8.65824H22.2372ZM25.7269 17.3335V3.33473H30.3207V17.3335H25.7269ZM36.136 10.9847C36.1489 10.9983 36.2475 11.1593 36.4317 11.4678C36.6159 11.7762 36.8558 12.1706 37.1513 12.6508C37.447 13.1308 37.759 13.6401 38.0874 14.1788C38.4157 14.7175 38.7247 15.2269 39.0143 15.7069C39.3028 16.1868 39.6313 16.729 40 17.3335H34.9531C34.6375 16.8208 34.3515 16.3575 34.0952 15.9434C33.8389 15.5294 33.5665 15.0825 33.2778 14.6027C32.9884 14.1234 32.7024 13.6567 32.4196 13.2028C32.1368 12.7489 31.8938 12.3513 31.6905 12.01C31.4863 11.6685 31.3449 11.4384 31.2663 11.3199C31.0713 11.0258 30.9559 10.6861 30.9315 10.3341C30.951 9.99621 31.0597 9.66959 31.2466 9.38742C31.3254 9.25597 31.47 9.02262 31.6803 8.68744C31.8906 8.35226 32.137 7.95468 32.4196 7.49463C32.7021 7.03458 32.9882 6.56466 33.2778 6.08489C33.5674 5.60512 33.8398 5.1549 34.0952 4.73428C34.3519 4.3141 34.6379 3.84747 34.9531 3.33441H40L36.0962 9.70287C35.9754 9.89195 35.9073 10.1099 35.8991 10.3341C35.9121 10.5695 35.9942 10.7958 36.1353 10.9847H36.136Z" fill="white"/>
<path d="M56.3448 0.802608C57.5761 1.32485 58.6952 2.07971 59.6406 3.02581C60.5868 3.9713 61.3416 5.09047 61.8638 6.32196C62.403 7.59336 62.6762 8.96174 62.6664 10.3427C62.675 11.7176 62.4019 13.0796 61.8638 14.3448C61.3415 15.5762 60.5866 16.6954 59.6406 17.641C58.6951 18.587 57.5761 19.3418 56.3448 19.8642C55.0732 20.4031 53.7047 20.6762 52.3237 20.6665C50.9426 20.6763 49.5741 20.4033 48.3026 19.8642C47.0732 19.3433 45.957 18.5882 45.0161 17.641C44.0751 16.6933 43.3238 15.5745 42.8029 14.3448C42.2647 13.0797 41.9915 11.7176 42.0003 10.3427C41.9903 8.96172 42.2635 7.59332 42.8029 6.32196C43.3237 5.09216 44.0749 3.97334 45.0161 3.02581C45.9569 2.07847 47.0732 1.32336 48.3026 0.802608C49.5741 0.263405 50.9426 -0.00963206 52.3237 0.000323817C53.7047 -0.0095136 55.0732 0.263519 56.3448 0.802608ZM55.5715 17.9793C56.5598 17.5653 57.4589 16.9646 58.2197 16.2101C58.9804 15.4562 59.5848 14.5595 59.9982 13.5715C60.4271 12.5495 60.6441 11.4511 60.6362 10.3427C60.644 9.23452 60.427 8.13622 59.9982 7.11426C59.5832 6.12429 58.9791 5.22477 58.2197 4.46606C57.4596 3.70584 56.5606 3.09867 55.5715 2.67751C54.5446 2.2417 53.4392 2.02138 52.3237 2.0302C51.2145 2.02259 50.1157 2.24291 49.0952 2.67751C48.1059 3.09858 47.2066 3.70576 46.4464 4.46606C45.6862 5.22614 45.0791 6.12517 44.6581 7.11426C44.2235 8.13471 44.0031 9.2336 44.0108 10.3427C44.003 11.452 44.2233 12.551 44.6581 13.5715C45.0775 14.5587 45.6849 15.4548 46.4464 16.2101C47.2073 16.9647 48.1067 17.5654 49.0952 17.9793C50.1172 18.408 51.2155 18.625 52.3237 18.6172C53.4383 18.6262 54.5431 18.4092 55.5715 17.9793ZM47.8093 11.503C47.6633 11.3593 47.5479 11.1877 47.4699 10.9983C47.3919 10.809 47.3529 10.6058 47.3553 10.4011C47.3503 10.1902 47.3879 9.98045 47.466 9.78446C47.544 9.58847 47.6607 9.41023 47.8093 9.26045C47.9523 9.1103 48.125 8.99152 48.3163 8.91164C48.5077 8.83177 48.7135 8.79255 48.9209 8.79648C49.134 8.79238 49.3457 8.83136 49.5434 8.91109C49.741 8.99082 49.9205 9.10965 50.0711 9.26045C50.2248 9.40737 50.3463 9.58462 50.4279 9.78097C50.5095 9.97731 50.5494 10.1885 50.5451 10.4011C50.5467 10.6075 50.5054 10.8121 50.4238 11.0018C50.3422 11.1915 50.2221 11.3621 50.0711 11.503C49.9205 11.6538 49.741 11.7726 49.5434 11.8524C49.3457 11.9321 49.134 11.9711 48.9209 11.967C48.7135 11.9709 48.5077 11.9317 48.3163 11.8518C48.125 11.7719 47.9523 11.6531 47.8093 11.503ZM55.6678 8.11985C55.6807 8.08086 55.7068 8.08086 55.7455 8.11985L56.2094 9.37645C56.2175 9.41087 56.2375 9.44136 56.2657 9.46261C56.294 9.48386 56.3288 9.49453 56.3641 9.49277L57.7364 9.5311C57.7621 9.5311 57.775 9.54109 57.775 9.56043C57.7712 9.58707 57.7574 9.61126 57.7364 9.62809L56.7504 10.4787C56.7309 10.4843 56.7127 10.4939 56.6971 10.5069C56.6814 10.5198 56.6687 10.5359 56.6596 10.5541C56.6505 10.5723 56.6453 10.5922 56.6443 10.6125C56.6433 10.6328 56.6465 10.653 56.6538 10.672L57.0021 11.9286C57.0021 11.9931 56.9824 12.0253 56.9438 12.0253L55.8031 11.2713C55.7282 11.2448 55.6464 11.2448 55.5715 11.2713L54.4886 12.0253C54.437 12.0253 54.4178 11.9931 54.4309 11.9286L54.7789 10.672C54.782 10.634 54.7747 10.5959 54.7576 10.5618C54.7406 10.5277 54.7145 10.499 54.6822 10.4787L53.6579 9.62809C53.6462 9.60736 53.6396 9.58419 53.6386 9.56043C53.6386 9.54109 53.6447 9.5311 53.6579 9.5311L55.0302 9.49277C55.0682 9.49668 55.1064 9.48721 55.1381 9.46597C55.1699 9.44473 55.1933 9.41307 55.2042 9.37645L55.6678 8.11985Z" fill="white"/>
</svg>

<svg xmlns="http://www.w3.org/2000/svg" viewBox="0 0 63 21"><path fill="#fff" d="M0 17.334v-14h4.593v14H0ZM10.843 5.563l2.641 11.77H8.457L5.303 3.336h2.82a2.655 2.655 0 0 1 1.764.64c.491.404.829.965.956 1.588Zm3.331 11.77V3.336h4.594v13.998h-4.594Zm8.063-8.675a2.737 2.737 0 0 1-1.409-.374 2.778 2.778 0 0 1-1.015-1.016 2.735 2.735 0 0 1-.375-1.41 2.685 2.685 0 0 1 .375-1.4 2.812 2.812 0 0 1 3.824-1.005c.415.244.761.59 1.005 1.006.251.423.38.907.375 1.4.005.495-.125.982-.375 1.41a2.8 2.8 0 0 1-1.005 1.015c-.424.25-.908.38-1.4.374Zm3.49 8.676v-14h4.594v14h-4.594Zm10.409-6.35c.013.014.111.175.296.484.184.308.424.703.72 1.183a384.573 384.573 0 0 1 1.862 3.056c.289.48.617 1.022.986 1.627h-5.047l-.858-1.39c-.256-.415-.529-.862-.817-1.341-.29-.48-.576-.946-.858-1.4a71.148 71.148 0 0 1-.73-1.193 21.119 21.119 0 0 0-.424-.69 2.04 2.04 0 0 1-.334-.986c.019-.338.128-.664.315-.947.078-.131.223-.364.433-.7a216.7 216.7 0 0 0 1.598-2.603l.817-1.35.858-1.4H40l-3.904 6.369c-.12.189-.189.407-.197.631.013.236.095.462.236.65h.001ZM56.345.803a10.4 10.4 0 0 1 3.296 2.223 10.398 10.398 0 0 1 2.223 3.296c.539 1.271.812 2.64.802 4.02a10.065 10.065 0 0 1-.802 4.003 10.406 10.406 0 0 1-5.52 5.52c-1.27.538-2.64.811-4.02.802-1.381.01-2.75-.264-4.021-.803a10.292 10.292 0 0 1-3.287-2.223 10.48 10.48 0 0 1-2.213-3.296A10.059 10.059 0 0 1 42 10.343c-.01-1.381.264-2.75.803-4.021a10.471 10.471 0 0 1 2.213-3.296A10.286 10.286 0 0 1 48.303.803c1.271-.54 2.64-.813 4.02-.803 1.382-.01 2.75.264 4.022.803Zm-.773 17.176a8.333 8.333 0 0 0 2.648-1.769 8.193 8.193 0 0 0 2.416-5.867 8.195 8.195 0 0 0-.638-3.229 8.254 8.254 0 0 0-1.778-2.648 8.396 8.396 0 0 0-2.648-1.788 8.148 8.148 0 0 0-3.248-.648 8.098 8.098 0 0 0-3.229.648 8.395 8.395 0 0 0-4.437 4.436 8.096 8.096 0 0 0-.647 3.229 8.092 8.092 0 0 0 .647 3.229 8.272 8.272 0 0 0 1.788 2.638 8.331 8.331 0 0 0 2.65 1.77 8.197 8.197 0 0 0 3.228.637 8.248 8.248 0 0 0 3.248-.638Zm-7.763-6.476a1.52 1.52 0 0 1-.454-1.102 1.565 1.565 0 0 1 .454-1.14 1.496 1.496 0 0 1 1.112-.465 1.583 1.583 0 0 1 1.15.464 1.535 1.535 0 0 1 .474 1.141 1.491 1.491 0 0 1-.474 1.102 1.584 1.584 0 0 1-1.15.464 1.496 1.496 0 0 1-1.112-.464Zm7.859-3.383c.013-.04.039-.04.078 0l.463 1.256a.151.151 0 0 0 .155.117l1.372.038c.026 0 .039.01.039.03a.106.106 0 0 1-.039.067l-.986.85a.146.146 0 0 0-.096.194l.348 1.257c0 .064-.02.096-.058.096l-1.14-.754a.347.347 0 0 0-.233 0l-1.082.754c-.052 0-.071-.032-.058-.096l.348-1.257a.208.208 0 0 0-.097-.193l-1.024-.85a.15.15 0 0 1-.02-.069c0-.019.007-.029.02-.029l1.372-.038a.164.164 0 0 0 .174-.117l.464-1.256Z"/></svg>
